X: 22685
T: Lakeside, The
R: waltz
M: 3/4
K: Gmajor
FGA|:B2BA B/^c/d|B3AG2|G3 A A/G/F|G2FD EG|
D2 AB DB|EG3 F/E/D|A3 B B/A/G|Bc AF GA|
B2BA B/^c/d|B3AG2|G3 A A/G/F|G2FD EG|
D2 AB DB|E G2-G2B|de2B A/G/E|1 G3 F GA:|2 G4 B/A/G||
|:FG EF GE|AG E2GA|B2B/A/G AE|G3 E A/G/E|
D2AB DB|EG3 F/E/D|A3 B B/A/G|Bc AB B/A/G|
FG EF GE|AG E2 GA|Bd B/A/G AE|GA3GE|
D2 AB DB|EG2-G2B|de2B A/G/E|1 G4 B/A/G:|2 G3 F GA||

